remix/Design/table-alt-line.svg

<svg viewBox="0 0 24 24" fill="currentColor" xmlns="http://www.w3.org/2000/svg"><path d="M21 3C21.5523 3 22 3.44772 22 4V20C22 20.5523 21.5523 21 21 21H3C2.44772 21 2 20.5523 2 20V4C2 3.44772 2.44772 3 3 3H21ZM20 16H4V19H20V16ZM8 5H4V14H8V5ZM14 5H10V14H14V5ZM20 5H16V14H20V5Z"/></svg>

<svg viewBox="0 0 24 24" xmlns="http://www.w3.org/2000/svg"><path fill="none" d="M0 0h24v24H0Z"/><path d="M21 3v0c.55 0 1 .44 1 1v16 0c0 .55-.45 1-1 1H3v0c-.56 0-1-.45-1-1V4v0c0-.56.44-1 1-1h18Zm-1 13H4v3h16v-3ZM8 5H4v9h4V5Zm6 0h-4v9h4V5Zm6 0h-4v9h4V5Z"/></svg>
